icons/urology.svg

<svg width="48" height="48" viewBox="0 0 48 48" fill="none" xmlns="http://www.w3.org/2000/svg">
<path fill-rule="evenodd" clip-rule="evenodd" d="M29.1676 12.1703C28.1298 13.2082 27.7815 14.6746 28.1228 16H28C26.3442 16 25 17.3404 25 18.9983V26.0724C24.6669 26.0236 24.3311 26 24 26C23.6689 26 23.3331 26.0236 23 26.0724V18.9983C23 17.3404 21.6558 16 20 16H19.8774C20.2187 14.6746 19.8704 13.2082 18.8325 12.1703C17.2704 10.6082 14.7377 10.6082 13.1756 12.1703C11.9174 13.4286 10.9952 15.169 11.0001 16.9999C10.9952 18.8307 11.9175 20.5582 13.1757 21.8165C14.7378 23.3786 17.2705 23.3786 18.8326 21.8165C19.867 20.782 20.2165 19.322 19.8809 18H20C20.5534 18 21 18.4471 21 18.9983V26.7314C20.8959 26.7898 20.7942 26.852 20.6953 26.9179C19.7148 27.5716 19 28.6121 19 30C19 32.419 20.7178 34.4367 23 34.9V37C23 37.5523 23.4477 38 24 38C24.5523 38 25 37.5523 25 37V34.9C27.2822 34.4367 29 32.419 29 30C29 28.6121 28.2852 27.5716 27.3047 26.918C27.2058 26.852 27.1041 26.7898 27 26.7314V18.9983C27 18.4471 27.4466 18 28 18H28.1193C27.7837 19.322 28.1331 20.782 29.1675 21.8165C30.7296 23.3786 33.2623 23.3786 34.8244 21.8165C36.0826 20.5582 37.0049 18.8307 37 16.9999C37.0049 15.169 36.0827 13.4286 34.8245 12.1703C33.2624 10.6082 30.7297 10.6082 29.1676 12.1703ZM33.4103 13.5846C32.6292 12.8035 31.3629 12.8035 30.5819 13.5846C29.9398 14.2266 29.8256 15.1965 30.239 15.9553C30.6789 15.848 31.0054 15.4514 31.0054 14.9785C31.0054 14.4262 31.4531 13.9785 32.0054 13.9785C32.5577 13.9785 33.0054 14.4262 33.0054 14.9785C33.0054 15.7491 32.7153 16.452 32.2385 16.9839C32.7153 17.5158 33.0054 18.2187 33.0054 18.9893C33.0054 19.5416 32.5577 19.9893 32.0054 19.9893C31.4531 19.9893 31.0054 19.5416 31.0054 18.9893C31.0054 18.5197 30.6834 18.1253 30.2482 18.0148C29.8238 18.7759 29.935 19.7555 30.5817 20.4023C31.3628 21.1833 32.6291 21.1833 33.4102 20.4023C34.3946 19.4178 35.0032 18.169 35.0001 16.9999C35.0032 15.8307 34.3948 14.569 33.4103 13.5846ZM26.6613 29C26.5377 28.8449 26.3815 28.7062 26.1953 28.5821C25.6461 28.2159 24.8517 28 24 28C23.1483 28 22.3539 28.2159 21.8047 28.582C21.6185 28.7062 21.4623 28.8449 21.3386 29H26.6613ZM26.8293 31C26.4175 32.1652 25.3062 33 24 33C22.6938 33 21.5825 32.1652 21.1707 31H26.8293ZM17.4183 13.5846C16.6372 12.8035 15.3709 12.8035 14.5898 13.5846C13.6054 14.569 12.9969 15.8307 13 16.9999C12.9969 18.169 13.6055 19.4178 14.59 20.4023C15.371 21.1833 16.6373 21.1833 17.4184 20.4023C18.0652 19.7555 18.1764 18.7759 17.7519 18.0147C17.3167 18.1252 16.9946 18.5196 16.9946 18.9893C16.9946 19.5416 16.5469 19.9893 15.9946 19.9893C15.4423 19.9893 14.9946 19.5416 14.9946 18.9893C14.9946 18.2187 15.2847 17.5158 15.7615 16.9839C15.2847 16.452 14.9946 15.7491 14.9946 14.9785C14.9946 14.4262 15.4423 13.9785 15.9946 13.9785C16.5469 13.9785 16.9946 14.4262 16.9946 14.9785C16.9946 15.4514 17.3212 15.8481 17.7611 15.9553C18.1746 15.1966 18.0603 14.2266 17.4183 13.5846Z" fill="black"/>
<path fill-rule="evenodd" clip-rule="evenodd" d="M6 9C6 7.34315 7.34315 6 9 6H39C40.6569 6 42 7.34315 42 9V39C42 40.6569 40.6569 42 39 42H9C7.34315 42 6 40.6569 6 39V9ZM8 9C8 8.44772 8.44771 8 9 8H39C39.5523 8 40 8.44771 40 9V39C40 39.5523 39.5523 40 39 40H9C8.44772 40 8 39.5523 8 39V9Z" fill="black"/>
</svg>

<svg
  xmlns="http://www.w3.org/2000/svg"
  width="24"
  height="24"
  viewBox="0 0 24 24"
  fill="none"
  stroke="currentColor"
  stroke-width="2"
  stroke-linecap="round"
  stroke-linejoin="round"
>
  <path
    fill-rule="evenodd"
    d="M29.168 12.17A4 4 0 0 0 28.123 16H28c-1.656 0-3 1.34-3 2.998v7.074a7 7 0 0 0-2 0v-7.074A3 3 0 0 0 20 16h-.123a4 4 0 0 0-6.702-3.83C11.918 13.43 10.996 15.17 11 17c-.005 1.83.918 3.558 2.176 4.817A4 4 0 0 0 19.88 18H20c.553 0 1 .447 1 .998v7.733a5 5 0 0 0-.305.187C19.715 27.572 19 28.612 19 30a5 5 0 0 0 4 4.9V37a1 1 0 1 0 2 0v-2.1a5 5 0 0 0 4-4.9c0-1.388-.715-2.428-1.695-3.082a5 5 0 0 0-.305-.187v-7.733A1 1 0 0 1 28 18h.12a4 4 0 0 0 6.705 3.817C36.082 20.558 37.004 18.83 37 17c.005-1.831-.917-3.571-2.175-4.83a4 4 0 0 0-5.657 0m4.242 1.415a2 2 0 0 0-3.171 2.37c.44-.107.766-.504.766-.976a1 1 0 1 1 2 0c0 .77-.29 1.473-.767 2.005.477.532.767 1.235.767 2.005a1 1 0 1 1-2 0c0-.47-.322-.864-.757-.974a2.001 2.001 0 0 0 3.162 2.387c.985-.984 1.593-2.233 1.59-3.402.003-1.17-.605-2.431-1.59-3.415M26.661 29a2 2 0 0 0-.466-.418C25.646 28.216 24.852 28 24 28s-1.646.216-2.195.582a2 2 0 0 0-.466.418zm.168 2a3.001 3.001 0 0 1-5.658 0zm-9.41-17.415a2 2 0 0 0-2.83 0C13.606 14.569 12.998 15.83 13 17c-.003 1.169.605 2.418 1.59 3.402a2 2 0 0 0 3.162-2.387c-.435.11-.757.505-.757.974a1 1 0 1 1-2 0c0-.77.29-1.473.767-2.005a3 3 0 0 1-.767-2.006 1 1 0 1 1 2 0c0 .473.326.87.766.977a2 2 0 0 0-.343-2.37"
    clip-rule="evenodd"
  />
  <path
    fill-rule="evenodd"
    d="M6 9a3 3 0 0 1 3-3h30a3 3 0 0 1 3 3v30a3 3 0 0 1-3 3H9a3 3 0 0 1-3-3zm2 0a1 1 0 0 1 1-1h30a1 1 0 0 1 1 1v30a1 1 0 0 1-1 1H9a1 1 0 0 1-1-1z"
    clip-rule="evenodd"
  />
</svg>
